X: 28232
T: Mrs. Frisbee's
R: jig
M: 6/8
K: Gmajor
G2A|:B2g edB|deB d2B|ABG ~E3|DE/F/G ABc|
Bdg edB|dBG AGE|DEG ABc|1 ~B3 G2A:|2 ~B3 G2B||
|:ABA AGE|DEG ABd|edg edB|dBG ABc|
deB d2B|ABG ~E3|DE/F/G ABc|1 ~B3 GAB:|2 ~B3 G2A||

